common/app/assets/images/global/minus-white-mask.svg

<svg xmlns="http://www.w3.org/2000/svg" width="32" height="32"><path fill="#fff" d="M16 0h-16v16c0-8.8 7.2-16 16-16zm-16 16v16h16c-8.8 0-16-7.2-16-16zm16 16h16v-16c0 8.8-7.2 16-16 16zm0-31c-8.3 0-15 6.7-15 15s6.7 15 15 15 15-6.7 15-15-6.7-15-15-15zm1.5 13.5l9.5.5v2l-9.5.5h-3l-9.5-.5v-2l9.5-.5h3zm-1.5-14.5c8.8 0 16 7.2 16 16v-16h-16z"/></svg>

<svg xmlns="http://www.w3.org/2000/svg" width="32" height="32"><path fill="#fff" d="M16 0H0v16C0 7.2 7.2 0 16 0zM0 16v16h16C7.2 32 0 24.8 0 16zm16 16h16V16c0 8.8-7.2 16-16 16zm0-31C7.7 1 1 7.7 1 16s6.7 15 15 15 15-6.7 15-15S24.3 1 16 1zm1.5 13.5l9.5.5v2l-9.5.5h-3L5 17v-2l9.5-.5h3zM16 0c8.8 0 16 7.2 16 16V0H16z"/></svg>
